X:188
T:Rock of Ages
%%stretchlast false
M:6/4
L:1/4
K:Ab clef=C1
"^I"[A,,A,CE]3/2 "^IV²"[A,,A,DF]/ "^I"[A,,A,CE]2 [A,,E,A,C]2 | [A,,E,CA]3/2 "^IV²"[A,,A,DF]/ "^I"[A,,A,CE]4 | "^I¹"[C,A,EA]3/2 "^ii7¹"[D,A,FB]/ "^I²"[E,A,Ec]3 "^♯iii"[E,DB] | "^I²"[E,,E,CA] "^V"[E,,E,B,G] "^I"[A,,E,CA]4 | "^V"[E,B,G]3/2 "^I²"[E,CA]/ "^♯iii"[E,DB]3 [E,DB] | "^♯iii°"[E,,E,DG] "^♯iii¹"[E,,E,DE] "^I"[A,,E,CA]4 | "^V"[E,B,G]3/2 "^I²"[E,CA]/ "^♯iii"[E,DB]3 [E,DB] | "^♯iii°"[E,,E,DG] "^♯iii¹"[E,,E,DE] "^iii+"[A,,A,CA]4 | "^I"[A,,A,CE]3/2 "^IV²"[A,,A,DF]/ "^I"[A,,A,CE]2 [A,,E,A,C]2 | [A,,E,CA]3/2 "^IV²"[A,,A,DF]/ "^I"[A,,A,CE]4 | "^I¹"[C,A,EA]3/2 "^ii7¹"[D,A,FB]/ "^I²"[E,A,Ec]3 "^♯iii"[E,DB] | "^I²"[E,,E,CA] "^V"[E,,E,B,G] "^I"[A,,E,CA]4 |]
